!!!OTL: St. Christoph. / (Mel.: Dein, dein soll sein das Herze mein!)
!!!ARE: Europa, Mitteleuropa, Deutschland
!!!SCT: A0614
!!!TXL: @@GMH
!!!YEM: Copyright 1995, estate of Helmut Schaffrath.
**kern	**text
*M3/2	*
*met(C3)	*
*clefC1	*
*k[]	*
*D:dor	*
=1	=1
!LO:TX:a:t=dor.	!
2ryy	.
2ryy	.
{2d	1._Sant
=2	=2
1d	Cri-
2d	-ſtof,
=3	=3
1a	du
2b	vil
=4	=4
1cc	hail-
2b	-ger
=5	=5
1a}	man,
{2b	dein
=6	=6
1cc	lob
2b	ſtet
=7	=7
1a	hoch
2g/	ʒu
=8	=8
*lig	*
2f	prei-
4e	.
4d	.
2e	.
*Xlig	*
=9	=9
1d}	-ſen:
{2g/	wer
=10	=10
1e	dein
2f	pild
=11	=11
1g	frů
2a	tůt
=12	=12
2f	ſchaw-
!LO:TX:a:t=P:coloured notes:problem	!
1e	-en
=13	=13
1d}	an,
{2d	des
=14	=14
1a	tags
2b	iſt
=15	=15
1cc	er
2dd	be-
=16	=16
*lig	*
2cc	-wei-
4b	.
4a	.
2b	.
*Xlig	*
=17	=17
1a}	-ſen,
{2dd	das
=18	=18
1b	her-
2cc	-ʒe
=19	=19
1a	ſein
2g	frö-
=20	=20
2a	-lich
2f	.
2g/	on
=21	=21
1f}	pein,
{2f/	ʒüch-
=22	=22
1f	-tig
2g	in
=23	=23
1a	al-
2g	-len
=24	=24
1g	e-
2f	.
=25	=25
2g	.
!LO:TX:a:t=P:coloured note:problem	!
1e	.
=26	=26
1d}	-ren,
{2dd	dein
=27	=27
1b	pet
2cc	gen
=28-	=28-
1a	gott
2g	hilft
=29	=29
*lig	*
2a	hie
2f	.
*Xlig	*
2g/	vnd
=30	=30
1f}	dort,
{2a	vmb
=31	=31
1cc	dei-
2b	-ner
=32	=32
1a	mar-
2g	-ter
=33	=33
*lig	*
2f	e-
4e	.
4d	.
2e	.
*Xlig	*
=34	=34
1.d/ll}	-re.
==	==
!!!GTL: Geistliche Volkslieder
!!!AGN: Romanze, Ballade, Lied, religioeses Lied
!! Notenbuchers Bergkreien 1551 No. 26 und Praetorius, Mus. Sion.
!!    VII. 1609 No. 182 von Boehme unterlegt.
!!!ONB: ESAC (Essen Associative Code) Database: ALTDEU
!!!AMT: simple triple
!!!AIN: vox
!!!EED: Helmut Schaffrath
!!!EEV: 1.0
!!!RDF**kern: l = terminal long
!!!AMD: Dorian
!!!URL-scan: https://rosdok.uni-rostock.de/mcrviewer/recordIdentifier/rosdok_ppn738218359/iview2/phys_0798.iview2?x=-1021.1722681204792&y=245.12578590027988&scale=0.35534665417946304&rotation=0&layout=singlePageLayout&logicalDiv=log_0007
!!!ENC: Anna Maria Matuszewska
!!!EEV: 2024/25/03
*-	*-
